X:776
T:Reel 776
M:4/4
K:Gmaj
L:1/8
B>G (3GGG dGBG| (3BAG dB cedc|Bcdf dBcB|ABcB cBcA| (3BcB dG  (3Bcd de|dBgB ABcA| (3def  (3gfe fdec|BGAF G2|Bdgd Bdgd|dBgB  (3efg dg|bgaf gfed|cBAG FAdc| (3BAG dG eGdG| (3BAG dG eGdB|cdef gedc|BGAF G2z2|
